assets/icons/qvision/flight_land.svg

<svg xmlns="http://www.w3.org/2000/svg" enable-background="new 0 0 24 24" height="24" viewBox="0 0 24 24" width="24"><g><rect fill="none" height="24" width="24"/></g><g><g><g><path d="M2.5,19h19v2h-19V19z M19.34,15.85c0.8,0.21,1.62-0.26,1.84-1.06c0.21-0.8-0.26-1.62-1.06-1.84l-5.31-1.42l-2.76-9.02 L10.12,2v8.28L5.15,8.95L4.22,6.63L2.77,6.24v5.17L19.34,15.85z"/></g></g></g></svg>

<svg width="24" height="24" viewBox="0 0 24 24" fill="none" xmlns="http://www.w3.org/2000/svg">
<g clip-path="url(#clip0_147_4212)">
<path d="M2.5 19H21.5V21H2.5V19ZM19.34 15.85C20.14 16.06 20.96 15.59 21.18 14.79C21.39 13.99 20.92 13.17 20.12 12.95L14.81 11.53L12.05 2.51L10.12 2V10.28L5.15 8.95L4.22 6.63L2.77 6.24V11.41L19.34 15.85Z" fill="#323232"/>
</g>
<defs>
<clipPath id="clip0_147_4212">
<rect width="24" height="24" fill="white"/>
</clipPath>
</defs>
</svg>
